dist/assets/img/arrows/carousel_arrow_prev.svg

<?xml version="1.0" encoding="UTF-8" standalone="no"?>
<svg width="20px" height="30px" viewBox="0 0 20 30" version="1.1" xmlns="http://www.w3.org/2000/svg" xmlns:xlink="http://www.w3.org/1999/xlink">
    <!-- Generator: Sketch 3.8.2 (29753) - http://www.bohemiancoding.com/sketch -->
    <title>Artboard 20 Copy</title>
    <desc>Created with Sketch.</desc>
    <defs>
        <path d="M5.29289322,14.7928932 C4.90236893,15.1834175 4.90236893,15.8165825 5.29289322,16.2071068 L13.7928932,24.7071068 C14.1834175,25.0976311 14.8165825,25.0976311 15.2071068,24.7071068 C15.5976311,24.3165825 15.5976311,23.6834175 15.2071068,23.2928932 L7.49226303,15.4219505 L15.2071068,7.70710678 C15.5976311,7.31658249 15.5976311,6.68341751 15.2071068,6.29289322 C14.8165825,5.90236893 14.1834175,5.90236893 13.7928932,6.29289322 L5.29289322,14.7928932 Z" id="path-1"></path>
        <filter x="-50%" y="-50%" width="200%" height="200%" filterUnits="objectBoundingBox" id="filter-2">
            <feOffset dx="0" dy="0" in="SourceAlpha" result="shadowOffsetOuter1"></feOffset>
            <feGaussianBlur stdDeviation="2" in="shadowOffsetOuter1" result="shadowBlurOuter1"></feGaussianBlur>
            <feColorMatrix values="0 0 0 0 0   0 0 0 0 0   0 0 0 0 0  0 0 0 0.5 0" type="matrix" in="shadowBlurOuter1"></feColorMatrix>
        </filter>
    </defs>
    <g id="Page-1" stroke="none" stroke-width="1" fill="none" fill-rule="evenodd">
        <g id="Artboard-20-Copy">
            <g id="Stroke-396-Copy-3">
                <use fill="black" fill-opacity="1" filter="url(#filter-2)" xlink:href="#path-1"></use>
                <use fill="#FFFFFF" fill-rule="evenodd" xlink:href="#path-1"></use>
            </g>
        </g>
    </g>
</svg>

<svg width="20" height="30" viewBox="0 0 20 30" xmlns="http://www.w3.org/2000/svg" xmlns:xlink="http://www.w3.org/1999/xlink">
    <title>gallery arrow prev</title>
    <defs>
        <path d="M5.293 14.793c-.39.39-.39 1.024 0 1.414l8.5 8.5c.39.39 1.024.39 1.414 0 .39-.39.39-1.024 0-1.414l-7.715-7.87 7.715-7.716c.39-.39.39-1.024 0-1.414-.39-.39-1.024-.39-1.414 0l-8.5 8.5z" id="b"/>
        <filter x="-50%" y="-50%" width="200%" height="200%" filterUnits="objectBoundingBox" id="a">
            <feOffset in="SourceAlpha" result="shadowOffsetOuter1"/>
            <feGaussianBlur stdDeviation="2" in="shadowOffsetOuter1" result="shadowBlurOuter1"/>
            <feColorMatrix values="0 0 0 0 0 0 0 0 0 0 0 0 0 0 0 0 0 0 0.5 0" in="shadowBlurOuter1"/>
        </filter>
    </defs>
    <g fill="none" fill-rule="evenodd">
        <use fill="#000" filter="url(#a)" xlink:href="#b"/>
        <use fill="#FFF" xlink:href="#b"/>
    </g>
</svg>
